X: 39064
T: Swedish Rhapsody, The
R: polka
M: 2/4
K: Gmajor
D2|:G2 Bd|gb af|g2 f2|c3 d|e2 d2|c2 A2|e2 d2|B3 A|
G2 Bd|gb af|g2 f2|c3 d|e2 d2|c2 F2|1 G4-|G2 D2:|2 G4-|G2 Bd||
g2 g2|g2 g2|f4-|f2 DF|e2 e2|e2 e2|d4-|d2 G2|
F2 Ac|e2 d2|F2 A2|F2 A2|F2 Ac|e2 d2|B4-|B2 d2|
g2 g2|g2 g2|f4-|f2 GB|e2 e2|e2 e2|d4-|d2 G2|
F2 Ac|e2 d2|F2 A2|F2 A2|F2 Ac|e2 d2|G4|G4||

